X:1
T:The Pipe on the Hob
M:6/8
L:1/8
Q:80
C:Arranged by T. Tully
S:Jig
K:HP
B | \
{g}"flatc"c3{g}ed"flatc"c | \
{g}ed"flatc"c{g}BAG | \
{g}A{d}A{e}Ag{a}gg |
eaf{a}ged{g}"flatc"c3{g}ed"flatc"c | \
{g}ed"flatc"c{g}efg | \
ag{a}edBe |
{g}A{d}A{e}A{gAGAG}A2 :| \
f | \
{gf}g3{f}gea | \
{g}ag{a}edBe |
{g}A{d}A{e}Ag{a}fg | \
{a}eaf{a}gef{gf}g3{f}gea | \
{g}ag{a}edeg |
ag{a}edBe | \
{g}A{d}A{e}A{gAGAG}A2 :| \
B |
"flatc"c{e}"flatc"c{G}"flatc"cd{e}d{c}d | \
{g}e"flatc"cA{g}AGA | \
"flatc"c{e}"flatc"c{G}"flatc"cd{e}d{c}d |
{g}e"flatc"cA{g}A2B"flatc"c{e}"flatc"c{G}"flatc"cd{e}d{c}d | \
e{g}e{A}egea | \
ge{A}e{g}dBe |
{g}A{d}A{e}A{gAGAG}A2 :|
